X: 1
T: Hundred Pipers
R: jig, march
O: Scotland 1851
Z: 1997 by John Chambers <jc:trillian.mit.edu>
N: (*) G chords give even more "bagpipey" version.
M: 6/8
L: 1/8
K: A
   AB \
| "A"c2E EFE | "D"F2A A2f | "A"e2c "Fm"cBA | "Bm"BcB "E7"BAB \
| "A"c2E EFE | "D"F2A A2f | "A"e2c "E7"B[cA]B | "A"A3- A :|
|: cd \
| "A"e2e ece | "D"f2a agf | "A"e2c "Fm"cBA | "Bm"c2B "E7"Bcd \
| "A"e2e ece | "D"f2a agf | "A"e2c "E7"B[cA]B | "A"A3- A :|
